!!!COM: 福山 雅治
!!!OTL: 家族になろうよ
**kern	**kern	**kern	**dynam	**kern	**dynam	**kern	**dynam	**kern	**dynam	**kern	**dynam	**kern	**dynam
*part7	*part7	*part6	*part6	*part5	*part5	*part4	*part4	*part3	*part3	*part2	*part2	*part1	*part1
*staff8	*staff7	*staff6	*	*staff5	*	*staff4	*	*staff3	*	*staff2	*	*staff1	*
*I"ピアノ	*	*I"ユーフォニウム	*	*I"B♭ トランペット	*	*I"B♭ クラリネット	*	*I"B♭ クラリネット	*	*I"フルート	*	*I"Melody	*
*I'Pno.	*	*I'Euph.	*	*I'B♭ Tpt.	*	*I'B♭ Cl.	*	*I'B♭ Cl.	*	*I'Fl.	*	*I'melody	*
*clefF4	*clefG2	*clefF4	*	*clefG2	*	*clefG2	*	*clefG2	*	*clefG2	*	*clefG2	*
*	*	*	*	*ITrd1c2	*	*ITrd1c2	*	*ITrd1c2	*	*	*	*	*
*k[b-e-a-d-]	*k[b-e-a-d-]	*k[b-e-a-d-]	*	*k[b-e-a-d-]	*	*k[b-e-a-d-]	*	*k[b-e-a-d-]	*	*k[b-e-a-d-]	*	*k[b-e-a-d-]	*
*M4/4	*M4/4	*M4/4	*	*M4/4	*	*M4/4	*	*M4/4	*	*M4/4	*	*M4/4	*
*MM72	*MM72	*MM72	*	*MM72	*	*MM72	*	*MM72	*	*MM72	*	*MM72	*
16EE-LL	8r	8r	.	8r	.	8r	.	8r	.	8r	.	8r	.
16FFJJ	.	.	.	.	.	.	.	.	.	.	.	.	.
=1	=1	=1	=1	=1	=1	=1	=1	=1	=1	=1	=1	=1	=1
[2AA-	8r	1r	.	1r	.	1r	.	1r	.	1r	.	1r	.
.	8B- 8e- 8g	.	.	.	.	.	.	.	.	.	.	.	.
.	4c 4e- 4a-	.	.	.	.	.	.	.	.	.	.	.	.
8AA-]	8A- 8c 8e-	.	.	.	.	.	.	.	.	.	.	.	.
4D-	4A- 4d- 4f	.	.	.	.	.	.	.	.	.	.	.	.
8BB-	8F 8B- 8d-	.	.	.	.	.	.	.	.	.	.	.	.
=2	=2	=2	=2	=2	=2	=2	=2	=2	=2	=2	=2	=2	=2
4C	4E- 4A- 4e-	4r	.	8r	.	2r	.	2r	.	1r	.	1r	.
.	.	.	.	8A-L	mp	.	.	.	.	.	.	.	.
8AA-L	8E-L 8A- 8c	8A-L	mp	8c 8e-	.	.	.	.	.	.	.	.	.
[8EE-J	[8D-J [8F [8B-	[8d-J	.	[8A-J [8f	.	.	.	.	.	.	.	.	.
2EE-_	4.D-] 4.F] 4.B-]	2d-_	.	2A-_ 2f_	.	8dd-L	mf	8ffL	mf	.	.	.	.
.	.	.	.	.	.	8a-	.	8dd-	.	.	.	.	.
.	.	.	.	.	.	8f	.	8a-	.	.	.	.	.
.	16E-LL	.	.	.	.	[8d-J	.	[8fJ	.	.	.	.	.
.	16FJJ	.	.	.	.	.	.	.	.	.	.	.	.
=3	=3	=3	=3	=3	=3	=3	=3	=3	=3	=3	=3	=3	=3
1EE-]	8A-L	4d-]	.	4A-] 4f]	.	4d-]	.	4f]	.	1r	.	1r	.
.	8d-	.	.	.	.	.	.	.	.	.	.	.	.
.	8f	4r	.	4r	.	4r	.	4r	.	.	.	.	.
.	[8B-J [8e- [8g	.	.	.	.	.	.	.	.	.	.	.	.
.	2B-] 2e-] 2g]	2r	.	2r	.	2r	.	2r	.	.	.	.	.
=4	=4	=4	=4	=4	=4	=4	=4	=4	=4	=4	=4	=4	=4
[2AA-	8r	1r	.	1r	.	1r	.	1r	.	1r	.	1r	.
.	8B- 8e- 8g	.	.	.	.	.	.	.	.	.	.	.	.
.	4c 4e- 4a-	.	.	.	.	.	.	.	.	.	.	.	.
8AA-]	8A- 8c 8e-	.	.	.	.	.	.	.	.	.	.	.	.
4D-	4A- 4d- 4f	.	.	.	.	.	.	.	.	.	.	.	.
8BB-	8F 8A- 8d-	.	.	.	.	.	.	.	.	.	.	.	.
=5	=5	=5	=5	=5	=5	=5	=5	=5	=5	=5	=5	=5	=5
4C	4E- 4A- 4e-	4r	.	8r	.	2r	.	2r	.	2r	.	1r	.
.	.	.	.	8A-L	.	.	.	.	.	.	.	.	.
8AA-L	8E-L 8A- 8c	8A-L	.	8c 8e-	.	.	.	.	.	.	.	.	.
[8EE-J	[8D-J [8F [8B-	[8d-J	.	[8A-J [8f	.	.	.	.	.	.	.	.	.
2EE-_	4.D-] 4.F] 4.B-]	2d-_	.	2A-_ 2f_	.	8a-L	.	8ffL	.	8ddd-L	.	.	.
.	.	.	.	.	.	8f	.	8dd-	.	8aa-	.	.	.
.	.	.	.	.	.	8d-	.	8a-	.	8ff	.	.	.
.	16E-LL	.	.	.	.	[8A-J	.	[8fJ	.	[8dd-J	.	.	.
.	16FJJ	.	.	.	.	.	.	.	.	.	.	.	.
=6	=6	=6	=6	=6	=6	=6	=6	=6	=6	=6	=6	=6	=6
1EE-]	8A-L	4d-]	.	4A-] 4f]	.	4A-]	.	4f]	.	4dd-]	.	1r	.
.	8d-	.	.	.	.	.	.	.	.	.	.	.	.
.	8f	4r	.	4r	.	4r	.	4r	.	4r	.	.	.
.	[8B-J [8e- [8g	.	.	.	.	.	.	.	.	.	.	.	.
.	2B-] 2e-] 2g]	2r	.	2r	.	2r	.	2r	.	2r	.	.	.
=7	=7	=7	=7	=7	=7	=7	=7	=7	=7	=7	=7	=7	=7
4.AA-	8e-L 8a- 8cc	4.A-	mp	4.e- 4.g	mp	8e-L	mp	8ccL	mp	8ccL	mp	1r	.
.	8dd-	.	.	.	.	8f	.	8dd-	.	8dd-	.	.	.
.	8cc	.	.	.	.	8e-	.	8cc	.	8cc	.	.	.
[8AA-	[8gJ [8cc [8ee-	[8A-	.	[8e- [8a-	.	[8gJ	.	[8ee-J	.	[8ee-J	.	.	.
2AA-]	2g] 2cc] 2ee-]	2A-]	.	2e-] 2a-]	.	2g]	.	2ee-]	.	2ee-]	.	.	.
=8	=8	=8	=8	=8	=8	=8	=8	=8	=8	=8	=8	=8	=8
2AA-	8dd-L 8ee- 8aa-	2.A-	.	2.d- 2.f	.	2.e-	.	2.a-	.	1r	.	1r	.
.	16a-L	.	.	.	.	.	.	.	.	.	.	.	.
.	[16ee-JJ	.	.	.	.	.	.	.	.	.	.	.	.
.	16ee-LL]	.	.	.	.	.	.	.	.	.	.	.	.
.	16aa-J	.	.	.	.	.	.	.	.	.	.	.	.
.	8ee-J	.	.	.	.	.	.	.	.	.	.	.	.
4AA-	2dd- 2ee- 2aa-	.	.	.	.	.	.	.	.	.	.	.	.
8AA-L	.	4r	.	4r	.	4r	.	4r	.	.	.	.	.
8A-J	.	.	.	.	.	.	.	.	.	.	.	.	.
=9	=9	=9	=9	=9	=9	=9	=9	=9	=9	=9	=9	=9	=9
4.F	8e-L 8a- 8cc	4.g	.	4.e- 4.a-	.	8e-L	.	8ccL	.	8ccL	.	1r	.
.	8dd-	.	.	.	.	8f	.	8dd-	.	8dd-	.	.	.
.	8cc	.	.	.	.	8e-	.	8cc	.	8cc	.	.	.
[8F	[8a-J [8cc [8ee-	[8f	.	[8e- [8a-	.	[8gJ	.	[8ee-J	.	[8ee-J	.	.	.
2F]	2a-] 2cc] 2ee-]	2f]	.	2e-] 2a-]	.	2g]	.	2ee-]	.	2ee-]	.	.	.
=10	=10	=10	=10	=10	=10	=10	=10	=10	=10	=10	=10	=10	=10
2D-	8dd-L 8ee- 8aa-	8r	.	4r	.	4r	.	4r	.	4r	.	2r	.
.	16a-L	[4.A-	f	.	.	.	.	.	.	.	.	.	.
.	[16ee-JJ	.	.	.	.	.	.	.	.	.	.	.	.
.	16ee-LL]	.	.	[4e- [4f	f	8r	.	8r	.	8r	.	.	.
.	16aa-J	.	.	.	.	.	.	.	.	.	.	.	.
.	8ee-J	.	.	.	.	[8ee-	f	[8ff	f	[8ddd-	f	.	.
8D-	8dd- 8ee- 8aa-	8A-^]	.	8e-^] 8f]	.	8ee-^]	.	8ff^]	.	8ddd-^]	.	4r	.
8r	8r	8r	.	8r	.	8r	.	8r	.	8r	.	.	.
4r	4r	4r	.	4r	.	4r	.	4r	.	4r	.	8.r	.
.	.	.	.	.	.	.	.	.	.	.	.	16E-	.
=11||	=11||	=11||	=11||	=11||	=11||	=11||	=11||	=11||	=11||	=11||	=11||	=11||	=11||
2A-	2c 2e- 2a-	1r	.	1r	.	1r	.	1r	.	1r	.	(8B-L	.
.	.	.	.	.	.	.	.	.	.	.	.	16A-L)	.
.	.	.	.	.	.	.	.	.	.	.	.	[16A-JJ	.
.	.	.	.	.	.	.	.	.	.	.	.	8.A-L]	.
.	.	.	.	.	.	.	.	.	.	.	.	16E-Jk	.
2G	2B- 2e- 2g	.	.	.	.	.	.	.	.	.	.	(8B-L	.
.	.	.	.	.	.	.	.	.	.	.	.	16A-L)	.
.	.	.	.	.	.	.	.	.	.	.	.	[16A-JJ	.
.	.	.	.	.	.	.	.	.	.	.	.	8.A-L]	.
.	.	.	.	.	.	.	.	.	.	.	.	16E-Jk	.
=12	=12	=12	=12	=12	=12	=12	=12	=12	=12	=12	=12	=12	=12
2F	2c 2e- 2a-	1r	.	1r	.	1r	.	1r	.	1r	.	(8B-L	.
.	.	.	.	.	.	.	.	.	.	.	.	16A-L)	.
.	.	.	.	.	.	.	.	.	.	.	.	([16B-JJ	.
.	.	.	.	.	.	.	.	.	.	.	.	16B-KL]	.
.	.	.	.	.	.	.	.	.	.	.	.	8c)	.
.	.	.	.	.	.	.	.	.	.	.	.	[16cJk	.
2E-	4c 4e- 4a-	.	.	.	.	.	.	.	.	.	.	4c]	.
.	16B-LL 16e-	.	.	.	.	.	.	.	.	.	.	4r	.
.	16cJ 16e-	.	.	.	.	.	.	.	.	.	.	.	.
.	8A-J	.	.	.	.	.	.	.	.	.	.	.	.
=13	=13	=13	=13	=13	=13	=13	=13	=13	=13	=13	=13	=13	=13
2.D-	2A- 2d- 2f	1r	.	1r	.	1r	.	1r	.	1r	.	16A-KL	.
.	.	.	.	.	.	.	.	.	.	.	.	8A-	.
.	.	.	.	.	.	.	.	.	.	.	.	([16A-Jk	.
.	.	.	.	.	.	.	.	.	.	.	.	8A-L]	.
.	.	.	.	.	.	.	.	.	.	.	.	16GL	.
.	.	.	.	.	.	.	.	.	.	.	.	16A-JJ)	.
.	4A- 4d- 4f	.	.	.	.	.	.	.	.	.	.	(8A-L	.
.	.	.	.	.	.	.	.	.	.	.	.	16GL)	.
.	.	.	.	.	.	.	.	.	.	.	.	([16FJJ	.
4E-	4G 4B- 4e-	.	.	.	.	.	.	.	.	.	.	16FLL]	.
.	.	.	.	.	.	.	.	.	.	.	.	16GJ)	.
.	.	.	.	.	.	.	.	.	.	.	.	[8E-J	.
=14	=14	=14	=14	=14	=14	=14	=14	=14	=14	=14	=14	=14	=14
[2AA-	8r	1r	.	1r	.	1r	.	1r	.	1r	.	4E-]	.
.	8B- 8e- 8g	.	.	.	.	.	.	.	.	.	.	.	.
.	4c 4e- 4a-	.	.	.	.	.	.	.	.	.	.	4r	.
8AA-]	8A- 8c 8e-	.	.	.	.	.	.	.	.	.	.	2r	.
4D-	4A- 4d- 4f	.	.	.	.	.	.	.	.	.	.	.	.
8BB-	8F 8B- 8d-	.	.	.	.	.	.	.	.	.	.	.	.
=15	=15	=15	=15	=15	=15	=15	=15	=15	=15	=15	=15	=15	=15
4C	4E- 4A- 4e-	1r	.	1r	.	1r	.	1r	.	1r	.	2r	.
8AA-L	8E-L 8A- 8c	.	.	.	.	.	.	.	.	.	.	.	.
[8EE-J	[8D-J [8F [8B-	.	.	.	.	.	.	.	.	.	.	.	.
8EE-L]	2D-] 2F] 2B-]	.	.	.	.	.	.	.	.	.	.	4r	.
8EE-J	.	.	.	.	.	.	.	.	.	.	.	.	.
16EE-LL	.	.	.	.	.	.	.	.	.	.	.	8.r	.
16FFJ	.	.	.	.	.	.	.	.	.	.	.	.	.
8AA-J	.	.	.	.	.	.	.	.	.	.	.	.	.
.	.	.	.	.	.	.	.	.	.	.	.	16E-	.
=16	=16	=16	=16	=16	=16	=16	=16	=16	=16	=16	=16	=16	=16
.	.	.	.	.	.	.	.	.	.	.	.	8qA-/	.
2AA-	4A- 4c 4e-	1r	.	1r	.	1r	.	1r	.	1r	.	(8B-L	.
.	.	.	.	.	.	.	.	.	.	.	.	16A-XL)	.
.	.	.	.	.	.	.	.	.	.	.	.	[16A-JJ	.
.	16B-LL 16e-	.	.	.	.	.	.	.	.	.	.	8.A-L]	.
.	16cJ	.	.	.	.	.	.	.	.	.	.	.	.
.	8A-J	.	.	.	.	.	.	.	.	.	.	.	.
.	.	.	.	.	.	.	.	.	.	.	.	16E-Jk	.
.	.	.	.	.	.	.	.	.	.	.	.	8qA-/	.
2GG	4E- 4B- 4e-	.	.	.	.	.	.	.	.	.	.	(8B-L	.
.	.	.	.	.	.	.	.	.	.	.	.	16A-XL)	.
.	.	.	.	.	.	.	.	.	.	.	.	[16A-JJ	.
.	4E- 4B- 4e-	.	.	.	.	.	.	.	.	.	.	8A-L]	.
.	.	.	.	.	.	.	.	.	.	.	.	16E-L	.
.	.	.	.	.	.	.	.	.	.	.	.	16E-JJ	.
=17	=17	=17	=17	=17	=17	=17	=17	=17	=17	=17	=17	=17	=17
.	.	.	.	.	.	.	.	.	.	.	.	8qA-/	.
2FF	4A- 4c 4e-	1r	.	1r	.	1r	.	1r	.	1r	.	(8B-L	.
.	.	.	.	.	.	.	.	.	.	.	.	16A-XL)	.
.	.	.	.	.	.	.	.	.	.	.	.	[16B-JJ	.
.	4c 4e- 4a-	.	.	.	.	.	.	.	.	.	.	16B-KL]	.
.	.	.	.	.	.	.	.	.	.	.	.	8qB-/	.
.	.	.	.	.	.	.	.	.	.	.	.	8c	.
.	.	.	.	.	.	.	.	.	.	.	.	[16cJk	.
2EE-	4c 4e- 4b-	.	.	.	.	.	.	.	.	.	.	4c]	.
.	4B- 4c 4e-	.	.	.	.	.	.	.	.	.	.	4r	.
=18	=18	=18	=18	=18	=18	=18	=18	=18	=18	=18	=18	=18	=18
2DD-	4A- 4d- 4f	1r	.	1r	.	1r	.	1r	.	1r	.	16d-KL	.
.	.	.	.	.	.	.	.	.	.	.	.	8d-	.
.	.	.	.	.	.	.	.	.	.	.	.	[16d-Jk	.
.	4A- 4d- 4f	.	.	.	.	.	.	.	.	.	.	8d-L]	.
.	.	.	.	.	.	.	.	.	.	.	.	(16d-L	.
.	.	.	.	.	.	.	.	.	.	.	.	16e-JJ)	.
2EE-	4B- 4e- 4g	.	.	.	.	.	.	.	.	.	.	(8cL	.
.	.	.	.	.	.	.	.	.	.	.	.	16B-L)	.
.	.	.	.	.	.	.	.	.	.	.	.	([16A-JJ	.
.	4B- 4e- 4g	.	.	.	.	.	.	.	.	.	.	8A-L]	.
.	.	.	.	.	.	.	.	.	.	.	.	16B-L	.
.	.	.	.	.	.	.	.	.	.	.	.	[16A-JJ	.
=19	=19	=19	=19	=19	=19	=19	=19	=19	=19	=19	=19	=19	=19
2.AA-	8r	1r	.	1r	.	1r	.	1r	.	1r	.	4A-])	.
.	8B- 8e- 8g	.	.	.	.	.	.	.	.	.	.	.	.
.	4c 4e- 4a-	.	.	.	.	.	.	.	.	.	.	4r	.
.	8cL 8e- 8a-	.	.	.	.	.	.	.	.	.	.	2r	.
.	8fJ	.	.	.	.	.	.	.	.	.	.	.	.
4AA-	8e-L	.	.	.	.	.	.	.	.	.	.	.	.
.	16cL	.	.	.	.	.	.	.	.	.	.	.	.
.	16B-JJ	.	.	.	.	.	.	.	.	.	.	.	.
=20||	=20||	=20||	=20||	=20||	=20||	=20||	=20||	=20||	=20||	=20||	=20||	=20||	=20||
2D-	8FL 8A-	1r	.	1r	.	2d-	mf	2a-	mf	1r	.	4c	mf
.	8e-J	.	.	.	.	.	.	.	.	.	.	.	.
.	16GLL	.	.	.	.	.	.	.	.	.	.	(8cL	.
.	16A-J	.	.	.	.	.	.	.	.	.	.	.	.
.	8FJ 8A- 8e-	.	.	.	.	.	.	.	.	.	.	16d-L)	.
.	.	.	.	.	.	.	.	.	.	.	.	[16B-JJ	.
2E-	8GL	.	.	.	.	2e-	.	2g	.	.	.	4B-]	.
.	8B-J 8e-	.	.	.	.	.	.	.	.	.	.	.	.
.	16FLL	.	.	.	.	.	.	.	.	.	.	16r	.
.	16G	.	.	.	.	.	.	.	.	.	.	16GLL	.
.	16B-	.	.	.	.	.	.	.	.	.	.	(16G	.
.	16e-JJ	.	.	.	.	.	.	.	.	.	.	16A-JJ)	.
=21	=21	=21	=21	=21	=21	=21	=21	=21	=21	=21	=21	=21	=21
2C	8GL	1r	.	1r	.	2e-	.	2g	.	1r	.	(8B-L	.
.	8B-J 8e-	.	.	.	.	.	.	.	.	.	.	16GL)	.
.	.	.	.	.	.	.	.	.	.	.	.	[16E-JJ	.
.	16FLL	.	.	.	.	.	.	.	.	.	.	8E-L]	.
.	16GJ	.	.	.	.	.	.	.	.	.	.	.	.
.	.	.	.	.	.	.	.	.	.	.	.	8qA-/	.
.	8B-J 8e-	.	.	.	.	.	.	.	.	.	.	([8B-J	.
2FF	8A-L	.	.	.	.	2c	.	2f	.	.	.	16B-KL]	.
.	.	.	.	.	.	.	.	.	.	.	.	8.A-XJ)	.
.	8cJ 8e-	.	.	.	.	.	.	.	.	.	.	.	.
.	16GLL	.	.	.	.	.	.	.	.	.	.	16r	.
.	16A-J	.	.	.	.	.	.	.	.	.	.	(16FLL	.
.	8cJ 8e-	.	.	.	.	.	.	.	.	.	.	16E-	.
.	.	.	.	.	.	.	.	.	.	.	.	16FJJ)	.
=22	=22	=22	=22	=22	=22	=22	=22	=22	=22	=22	=22	=22	=22
2D-	8FL 8A-	1r	.	1r	.	2d-	.	2a-	.	1r	.	4c	.
.	8e-J	.	.	.	.	.	.	.	.	.	.	.	.
.	16GLL	.	.	.	.	.	.	.	.	.	.	(8cL	.
.	16A-J	.	.	.	.	.	.	.	.	.	.	.	.
.	8FJ 8e-	.	.	.	.	.	.	.	.	.	.	16d-L)	.
.	.	.	.	.	.	.	.	.	.	.	.	[16B-JJ	.
2E-	8GL	.	.	.	.	2e-	.	2g	.	.	.	8.B-L]	.
.	8B-J 8e-	.	.	.	.	.	.	.	.	.	.	.	.
.	.	.	.	.	.	.	.	.	.	.	.	(16B-Jk	.
.	16FLL	.	.	.	.	.	.	.	.	.	.	8E-L)	.
.	16G	.	.	.	.	.	.	.	.	.	.	.	.
.	16B-	.	.	.	.	.	.	.	.	.	.	16E-L	.
.	16e-JJ	.	.	.	.	.	.	.	.	.	.	[16e-JJ	.
=23	=23	=23	=23	=23	=23	=23	=23	=23	=23	=23	=23	=23	=23
2AA-	4A- 4c 4e-	1r	.	1r	.	4r	.	4r	.	4r	.	2.e-]	.
.	16A-LL	.	.	.	.	16cLL	mf	16e-LL	mf	16a-LL	mf	.	.
.	16e-	.	.	.	.	16a-	.	16cc	.	16ee-	.	.	.
.	16a-	.	.	.	.	16cc	.	16ee-	.	16aa-	.	.	.
.	16ccJJ	.	.	.	.	16ee-JJ	.	16aa-JJ	.	16cccJJ	.	.	.
4EE-	4d- 4g-X 4b-	.	.	.	.	4b-	.	4gg-X	.	4ddd-	.	.	.
4AA-	4c 4e- 4a-	.	.	.	.	4a-	.	4ee-	.	4ccc	.	8.r	.
.	.	.	.	.	.	.	.	.	.	.	.	16C	.
=24	=24	=24	=24	=24	=24	=24	=24	=24	=24	=24	=24	=24	=24
2D-	8FL 8A-	1r	.	1r	.	2f	.	2a-	.	2cc	.	4c	.
.	8e-J	.	.	.	.	.	.	.	.	.	.	.	.
.	16GLL	.	.	.	.	.	.	.	.	.	.	(8cL	.
.	16A-J	.	.	.	.	.	.	.	.	.	.	.	.
.	8FJ 8e-	.	.	.	.	.	.	.	.	.	.	16d-L)	.
.	.	.	.	.	.	.	.	.	.	.	.	[16B-JJ	.
2E-	8GL	.	.	.	.	2r	.	2r	.	2r	.	4B-]	.
.	8B-J 8e-	.	.	.	.	.	.	.	.	.	.	.	.
.	16FLL	.	.	.	.	.	.	.	.	.	.	16r	.
.	16G	.	.	.	.	.	.	.	.	.	.	16GLL	.
.	16B-	.	.	.	.	.	.	.	.	.	.	(16G	.
.	16e-JJ	.	.	.	.	.	.	.	.	.	.	16A-JJ)	.
=25	=25	=25	=25	=25	=25	=25	=25	=25	=25	=25	=25	=25	=25
2C	8GL	2r	.	2r	.	1r	.	1r	.	1r	.	(8B-L	.
.	8B-J 8e-	.	.	.	.	.	.	.	.	.	.	16GL)	.
.	.	.	.	.	.	.	.	.	.	.	.	[16E-JJ	.
.	16GLL	.	.	.	.	.	.	.	.	.	.	8E-L]	.
.	16A-J	.	.	.	.	.	.	.	.	.	.	.	.
.	.	.	.	.	.	.	.	.	.	.	.	8qA-/	.
.	8B-J 8e-	.	.	.	.	.	.	.	.	.	.	16B-L	.
.	.	.	.	.	.	.	.	.	.	.	.	([16B-JJ	.
2FF	8A-L	2F	mf	2c	mf	.	.	.	.	.	.	16B-KL]	.
.	.	.	.	.	.	.	.	.	.	.	.	8.A-XJ)	.
.	16cL 16e-	.	.	.	.	.	.	.	.	.	.	.	.
.	[16GJJ	.	.	.	.	.	.	.	.	.	.	.	.
.	16GLL]	.	.	.	.	.	.	.	.	.	.	(8FL	.
.	16A-J	.	.	.	.	.	.	.	.	.	.	.	.
.	8cJ 8e-	.	.	.	.	.	.	.	.	.	.	8E-J)	.
=26	=26	=26	=26	=26	=26	=26	=26	=26	=26	=26	=26	=26	=26
2BB-	4F 4B- 4d-	4B-	mf	4d- 4f	mf	4A-	mf	4a-	mf	1r	.	(8D-L	.
.	.	.	.	.	.	.	.	.	.	.	.	8E-J	.
.	4F 4B- 4d-	4B-	.	4d- 4f	.	4A-	.	4a-	.	.	.	8FL	.
.	.	.	.	.	.	.	.	.	.	.	.	16GL	.
.	.	.	.	.	.	.	.	.	.	.	.	[16A-JJ	.
2BB-	4F 4B- 4dn	4B-	.	4d 4f	.	4A-	.	4a-	.	.	.	8A-L])	.
.	.	.	.	.	.	.	.	.	.	.	.	(8B-	.
.	4F 4B- 4d	4B-	.	4d 4f	.	4A-	.	4a-	.	.	.	8c	.
.	.	.	.	.	.	.	.	.	.	.	.	8d-J)	.
=27	=27	=27	=27	=27	=27	=27	=27	=27	=27	=27	=27	=27	=27
2EE-	4A- 4d- 4f	4E-	.	4f 4a-	.	4A-	.	4f	.	1r	.	8.cL	.
.	.	.	.	.	.	.	.	.	.	.	.	16cJk	.
.	4A- 4d- 4f	4E-	.	4f 4a-	.	4A-	.	4f	.	.	.	(16cLL	.
.	.	.	.	.	.	.	.	.	.	.	.	16d-	.
.	.	.	.	.	.	.	.	.	.	.	.	16c)	.
.	.	.	.	.	.	.	.	.	.	.	.	[16cJJ	.
2EE-	4.B- 4.e- 4.g	4.E-	.	4.g 4.b-	.	4.B-	.	4.g	.	.	.	8c]	.
.	.	.	.	.	.	.	.	.	.	.	.	[4.B-	.
.	16b-LL	16B-LL	f	16B-LL 16b-	f	8r	.	8r	.	.	.	.	.
.	16ccJJ	16cJJ	.	16cJJ 16cc	.	.	.	.	.	.	.	.	.
=28	=28	=28	=28	=28	=28	=28	=28	=28	=28	=28	=28	=28	=28
4D-	4f 4a- 4dd-	4d-	.	4d- 4dd-	.	4f	f	4a-	f	4ff	f	4B-]	.
4C	4e- 4g 4b- 4cc	4c	.	4c 4cc	.	4e-	.	4g	.	4ee-	.	4r	.
4BB-	4d- 4f 4a- 4b-	4B-	.	4B- 4b-	.	4d-	.	4f	.	4dd-	.	4r	.
4EE-	4G 4B- 4e-	4E-	.	4e-	.	4G	.	4B-	.	4g	.	16r	.
.	.	.	.	.	.	.	.	.	.	.	.	8E-L	f
.	.	.	.	.	.	.	.	.	.	.	.	16E-Jk	.
=29||	=29||	=29||	=29||	=29||	=29||	=29||	=29||	=29||	=29||	=29||	=29||	=29||	=29||
[4AA-	4A- 4c 4e-	4r	.	4r	.	1c	.	1e-	.	1a-	.	(8e-L	.
.	.	.	.	.	.	.	.	.	.	.	.	16d-L)	.
.	.	.	.	.	.	.	.	.	.	.	.	[16d-JJ	.
8.AA-L]	4A- 4c 4e-	2E-	.	2c 2a-	.	.	.	.	.	.	.	8d-L]	.
.	.	.	.	.	.	.	.	.	.	.	.	16cL	.
16EE-Jk	.	.	.	.	.	.	.	.	.	.	.	[16cJJ	.
8AA-	4A- 4c 4e-	.	.	.	.	.	.	.	.	.	.	16cKL]	.
.	.	.	.	.	.	.	.	.	.	.	.	8.B-J	.
4AA-	.	.	.	.	.	.	.	.	.	.	.	.	.
.	4A- 4c 4e-	4A-	.	4e- 4cc	.	.	.	.	.	.	.	8A-L	.
.	.	.	.	.	.	.	.	.	.	.	.	8qB-/	.
8AA-	.	.	.	.	.	.	.	.	.	.	.	8cJ	.
=30	=30	=30	=30	=30	=30	=30	=30	=30	=30	=30	=30	=30	=30
[4C	4G 4B- 4c 4en	2.C	.	2.B- 2.eX	.	2r	.	2r	.	2r	.	(4.B-X	.
8.CL]	4G 4B- 4c 4e	.	.	.	.	.	.	.	.	.	.	.	.
.	.	.	.	.	.	.	.	.	.	.	.	16cLL	.
16GGJk	.	.	.	.	.	.	.	.	.	.	.	[16B-JJ	.
8CCL	8dd-L 8een	.	.	.	.	8b-L	.	8dd-L	.	8eenL	.	4B-])	.
8CC	8b- 8dd-	.	.	.	.	8g	.	8b-	.	8dd-	.	.	.
8CC	8b- 8dd-	4r	.	4r	.	8g	.	8b-	.	8dd-	.	16r	.
.	.	.	.	.	.	.	.	.	.	.	.	8E-L	.
8EEnJ	8gJ 8b- 8cc	.	.	.	.	8gJ	.	8b-J	.	[8ccJ	.	.	.
.	.	.	.	.	.	.	.	.	.	.	.	16E-Jk	.
=31	=31	=31	=31	=31	=31	=31	=31	=31	=31	=31	=31	=31	=31
[4FF	4e- 4a- 4cc	2r	.	2r	.	1e-	.	1a-	.	1cc]	.	(8d-L	.
.	.	.	.	.	.	.	.	.	.	.	.	16cL)	.
.	.	.	.	.	.	.	.	.	.	.	.	[16cJJ	.
8.FFL]	4c 4e- 4a-	.	.	.	.	.	.	.	.	.	.	8cL]	.
.	.	.	.	.	.	.	.	.	.	.	.	16B-L	.
16CCJk	.	.	.	.	.	.	.	.	.	.	.	[16B-JJ	.
8FF	4c 4e- 4a-	4A-	.	4e- 4cc	.	.	.	.	.	.	.	16B-KL]	.
.	.	.	.	.	.	.	.	.	.	.	.	8.A-J	.
4FF	.	.	.	.	.	.	.	.	.	.	.	.	.
.	4c 4e- 4a-	4E-	.	4c 4a-	.	.	.	.	.	.	.	8r	.
8FF	.	.	.	.	.	.	.	.	.	.	.	(16FLL	.
.	.	.	.	.	.	.	.	.	.	.	.	16A-JJ)	.
=32	=32	=32	=32	=32	=32	=32	=32	=32	=32	=32	=32	=32	=32
2AA-	4B- 4d- 4g-X	2AA-	.	2B- 2g-X	.	2r	.	2r	.	2r	.	(4.G	.
.	4B- 4d- 4g-	.	.	.	.	.	.	.	.	.	.	.	.
.	.	.	.	.	.	.	.	.	.	.	.	16A-LL)	.
.	.	.	.	.	.	.	.	.	.	.	.	([16A-JJ	.
4AA-	4B- 4d- 4f	4AA-	.	4d- 4f	.	8d-L	.	8fL	.	8b-L	.	16A-KL]	.
.	.	.	.	.	.	.	.	.	.	.	.	8.GJ)	.
.	.	.	.	.	.	8f	.	8b-	.	8dd-	.	.	.
4AA-	4A- 4c 4e-	4AA-	.	4c 4e-	.	8g-X	.	8cc	.	8ff	.	8.r	.
.	.	.	.	.	.	8A-J	.	8cJ	.	8e-J	.	.	.
.	.	.	.	.	.	.	.	.	.	.	.	16E-	.
=33	=33	=33	=33	=33	=33	=33	=33	=33	=33	=33	=33	=33	=33
[4DD-	4A- 4c 4f	2D-	.	2c 2f	.	2c	.	2f	.	2a-	.	(8FL	.
.	.	.	.	.	.	.	.	.	.	.	.	8D-J)	.
8.DD-L]	4A- 4c 4f	.	.	.	.	.	.	.	.	.	.	8FL	.
.	.	.	.	.	.	.	.	.	.	.	.	8qB-/	.
.	.	.	.	.	.	.	.	.	.	.	.	16cL	.
16DD-Jk	.	.	.	.	.	.	.	.	.	.	.	[16cJJ	.
8EE-	4G 4B- 4e-	2E-	.	2B- 2g	.	2G	.	2e-	.	2b-	.	16cKL]	.
.	.	.	.	.	.	.	.	.	.	.	.	8.B-XJ	.
4EE-	.	.	.	.	.	.	.	.	.	.	.	.	.
.	4G 4B- 4e-	.	.	.	.	.	.	.	.	.	.	8r	.
8EE-	.	.	.	.	.	.	.	.	.	.	.	8G	.
=34	=34	=34	=34	=34	=34	=34	=34	=34	=34	=34	=34	=34	=34
[4EEn	4G 4c 4g	2En	.	2c 2g	.	2G	.	2eX	.	2b-	.	(8B-L	.
.	.	.	.	.	.	.	.	.	.	.	.	8GJ)	.
8.EEL]	4G 4c 4g	.	.	.	.	.	.	.	.	.	.	(8B-L	.
.	.	.	.	.	.	.	.	.	.	.	.	16d-L)	.
16EEJk	.	.	.	.	.	.	.	.	.	.	.	([16d-JJ	.
8FF	4A- 4c 4f	2F	.	2c 2a-	.	2c	.	2f	.	2a-	.	16d-KL]	.
.	.	.	.	.	.	.	.	.	.	.	.	8.cJ)	.
4FF	.	.	.	.	.	.	.	.	.	.	.	.	.
.	4A- 4c 4f	.	.	.	.	.	.	.	.	.	.	(8FL	.
8AA-	.	.	.	.	.	.	.	.	.	.	.	16GL)	.
.	.	.	.	.	.	.	.	.	.	.	.	[16A-JJ	.
=35	=35	=35	=35	=35	=35	=35	=35	=35	=35	=35	=35	=35	=35
2BB-	2A- 2d- 2f	1r	.	1r	.	1d-	.	1f	.	1a-	.	4A-]	.
.	.	.	.	.	.	.	.	.	.	.	.	8r	.
.	.	.	.	.	.	.	.	.	.	.	.	(16cLL	.
.	.	.	.	.	.	.	.	.	.	.	.	[16B-JJ	.
2EE-	2A- 2d- 2f	.	.	.	.	.	.	.	.	.	.	4.B-]	.
.	.	.	.	.	.	.	.	.	.	.	.	16A-LL)	.
.	.	.	.	.	.	.	.	.	.	.	.	[16A-JJ	.
=36||	=36||	=36||	=36||	=36||	=36||	=36||	=36||	=36||	=36||	=36||	=36||	=36||	=36||
4.DD-	4.A- 4.c 4.f	1r	.	2r	.	1r	.	1r	.	1r	.	2A-]	.
[8DD-	[8G [8B- [8e-	.	.	.	.	.	.	.	.	.	.	.	.
2DD-_	4G] 4B-] 4e-]	.	.	4r	.	.	.	.	.	.	.	2r	.
.	4G 4B- 4e-	.	.	16r	.	.	.	.	.	.	.	.	.
.	.	.	.	(16fLL	.	.	.	.	.	.	.	.	.
.	.	.	.	16a-)	.	.	.	.	.	.	.	.	.
.	.	.	.	16cc'JJ	.	.	.	.	.	.	.	.	.
=37	=37	=37	=37	=37	=37	=37	=37	=37	=37	=37	=37	=37	=37
1DD-]	4G 4B- 4e-	1r	.	(8ee-~L	.	1r	.	1r	.	1r	.	1r	.
.	.	.	.	8qeeX/	.	.	.	.	.	.	.	.	.
.	.	.	.	16ffL	.	.	.	.	.	.	.	.	.
.	.	.	.	[16ccJJ	.	.	.	.	.	.	.	.	.
.	4G 4B- 4e-	.	.	4cc_	.	.	.	.	.	.	.	.	.
.	4G 4B- 4e-	.	.	8.ccL]	.	.	.	.	.	.	.	.	.
.	.	.	.	32cc-XLL	.	.	.	.	.	.	.	.	.
.	.	.	.	32b-JJJ	.	.	.	.	.	.	.	.	.
.	4G 4B- 4e-	.	.	4a-)	.	.	.	.	.	.	.	.	.
=38	=38	=38	=38	=38	=38	=38	=38	=38	=38	=38	=38	=38	=38
4.FF	4.B- 4.c 4.f	1r	.	2r	.	1r	.	1r	.	1r	.	1r	.
[8FF	[8A- [8c [8f	.	.	.	.	.	.	.	.	.	.	.	.
2FF_	4A-] 4c] 4f]	.	.	8.r	.	.	.	.	.	.	.	.	.
.	.	.	.	(16g	.	.	.	.	.	.	.	.	.
.	4A- 4c 4f	.	.	12a-L	.	.	.	.	.	.	.	.	.
.	.	.	.	12g	.	.	.	.	.	.	.	.	.
.	.	.	.	12a-J	.	.	.	.	.	.	.	.	.
=39	=39	=39	=39	=39	=39	=39	=39	=39	=39	=39	=39	=39	=39
1FF]	4A- 4c 4f	1r	.	8gL	.	1r	.	1r	.	1r	.	1r	.
.	.	.	.	16a-L	.	.	.	.	.	.	.	.	.
.	.	.	.	[16gJJ	.	.	.	.	.	.	.	.	.
.	4A- 4c 4f	.	.	8gL]	.	.	.	.	.	.	.	.	.
.	.	.	.	16a-L	.	.	.	.	.	.	.	.	.
.	.	.	.	8qa/	.	.	.	.	.	.	.	.	.
.	.	.	.	[16b-JJ	.	.	.	.	.	.	.	.	.
.	4A- 4c 4f	.	.	8b-L])	.	.	.	.	.	.	.	.	.
.	.	.	.	(8a-X	.	.	.	.	.	.	.	.	.
.	4A- 4c 4f	.	.	8g	.	.	.	.	.	.	.	.	.
.	.	.	.	8e-J)	.	.	.	.	.	.	.	.	.
=40	=40	=40	=40	=40	=40	=40	=40	=40	=40	=40	=40	=40	=40
4.GG-X	4.e- 4.a- 4.cc	4r	.	8d-	.	4r	.	4r	.	1r	.	1r	.
.	.	.	.	8r	.	.	.	.	.	.	.	.	.
.	.	2G-X	.	4r	.	2A-	.	2f	.	.	.	.	.
[8GG-	[8d- [8g-X [8b-	.	.	.	.	.	.	.	.	.	.	.	.
4GG-]	4d-] 4g-] 4b-]	.	.	(16cLL	.	.	.	.	.	.	.	.	.
.	.	.	.	16d-J)	.	.	.	.	.	.	.	.	.
.	.	.	.	8ccJ	.	.	.	.	.	.	.	.	.
.	.	.	.	8qdd-/	.	.	.	.	.	.	.	.	.
[4DD-	[4d- [4f [4a-	[4D-	.	4cc	.	[4A-	.	[4f	.	.	.	.	.
=41	=41	=41	=41	=41	=41	=41	=41	=41	=41	=41	=41	=41	=41
.	.	.	.	8qbX/	>	.	.	.	.	.	.	.	.
2.DD-]	4d-] 4f] 4a-]	4D-]	.	(4b-	.	4A-]	.	4f]	.	2r	.	1r	.
.	4d- 4f 4a-	4D-	.	4a-)	.	4A-	.	4f	.	.	.	.	.
.	4d- 4f 4a-	4D-	.	4r	]	4A-	.	4f	.	4r	.	.	.
8DD-L	8d-L 8f 8a-	8D-L	.	8a-'L	.	8A-L	.	8fL	.	8aa-'L	.	.	.
[8EE-J	[8d-J [8f [8b-	[8E-J	.	[8ee-^J	fp	[8d-J	.	[8fJ	.	[8bb-^J	fp	.	.
=42	=42	=42	=42	=42	=42	=42	=42	=42	=42	=42	=42	=42	=42
1EE-]	4d-] 4f] 4b-]	4E-]	<	1ee-_	<	4d-]	<	4f]	<	1bb-_	<[	1r	.
.	4d- 4f 4b-	4E-	.	.	.	4d-	.	4f	.	.	.	.	.
.	4d- 4f 4b-	4E-	.	.	.	4d-	.	4f	.	.	.	.	.
.	4d- 4f 4b-	4E-	[[	.	.	4d-	[[	4f	[[	.	.	.	.
=43	=43	=43	=43	=43	=43	=43	=43	=43	=43	=43	=43	=43	=43
8EE-L 8E-	8d-L 8f 8b-	8E-^L	.	4ee-]	.	8d-^L	.	8f^L	.	4bb-]	.	2r	.
8EE-J 8E-	8d-J 8f 8b-	8E-^J	.	.	.	8d-^J	.	8f^J	.	.	.	.	.
4r	4r	4r	.	4r	[	4r	.	4r	.	4r	.	.	.
2r	2r	2r	.	2r	.	2r	.	2r	.	2r	.	4r	.
.	.	.	.	.	.	.	.	.	.	.	.	16r	.
.	.	.	.	.	.	.	.	.	.	.	.	8E-L	f
.	.	.	.	.	.	.	.	.	.	.	.	16E-Jk	.
=44||	=44||	=44||	=44||	=44||	=44||	=44||	=44||	=44||	=44||	=44||	=44||	=44||	=44||
[4AA-	4A- 4c 4e-	4r	.	4r	.	1c	.	1e-	.	1a-	.	(8e-L	.
.	.	.	.	.	.	.	.	.	.	.	.	16d-L)	.
.	.	.	.	.	.	.	.	.	.	.	.	[16d-JJ	.
8.AA-L]	4A- 4c 4e-	2E-	.	2c 2a-	.	.	.	.	.	.	.	8d-L]	.
.	.	.	.	.	.	.	.	.	.	.	.	16cL	.
.	.	.	.	.	.	.	.	.	.	.	.	8qd-/	.
16EE-Jk	.	.	.	.	.	.	.	.	.	.	.	[16cJJ	.
8AA-	4A- 4c 4e-	.	.	.	.	.	.	.	.	.	.	16cKL]	.
.	.	.	.	.	.	.	.	.	.	.	.	8.B-J	.
4AA-	.	.	.	.	.	.	.	.	.	.	.	.	.
.	4A- 4c 4e-	4A-	.	4e- 4cc	.	.	.	.	.	.	.	(8A-L	.
8AA-	.	.	.	.	.	.	.	.	.	.	.	8cJ)	.
=45	=45	=45	=45	=45	=45	=45	=45	=45	=45	=45	=45	=45	=45
[4C	4G 4B- 4c 4en	2.C	.	2.B- 2.eX	.	2r	.	2r	.	2r	.	4.B-	.
8.CL]	4G 4B- 4c 4e	.	.	.	.	.	.	.	.	.	.	.	.
.	.	.	.	.	.	.	.	.	.	.	.	8qB-/	.
.	.	.	.	.	.	.	.	.	.	.	.	16cLL	.
16GGJk	.	.	.	.	.	.	.	.	.	.	.	[16cJJ	.
8CCL	8dd-L 8een	.	.	.	.	8b-L	.	8dd-L	.	8eenL	.	16cKL]	.
.	.	.	.	.	.	.	.	.	.	.	.	8.B-XJ	.
8CC	8b- 8dd-	.	.	.	.	8g	.	8b-	.	8dd-	.	.	.
8CC	8b- 8dd-	4r	.	4r	.	8g	.	8b-	.	8dd-	.	16r	.
.	.	.	.	.	.	.	.	.	.	.	.	8E-L	.
8EEnJ	8gJ 8b- 8cc	.	.	.	.	8gJ	.	8b-J	.	[8ccJ	.	.	.
.	.	.	.	.	.	.	.	.	.	.	.	16E-Jk	.
=46	=46	=46	=46	=46	=46	=46	=46	=46	=46	=46	=46	=46	=46
[4FF	4e- 4a- 4cc	2r	.	2r	.	1e-	.	1a-	.	1cc]	.	(8d-L	.
.	.	.	.	.	.	.	.	.	.	.	.	16cL)	.
.	.	.	.	.	.	.	.	.	.	.	.	([16cJJ	.
8.FFL]	4c 4e- 4a-	.	.	.	.	.	.	.	.	.	.	8cL]	.
.	.	.	.	.	.	.	.	.	.	.	.	16B-L)	.
.	.	.	.	.	.	.	.	.	.	.	.	8qc/	.
16CCJk	.	.	.	.	.	.	.	.	.	.	.	[16B-JJ	.
8FF	4c 4e- 4a-	4A-	.	4e- 4cc	.	.	.	.	.	.	.	16B-KL]	.
.	.	.	.	.	.	.	.	.	.	.	.	8.A-J	.
4FF	.	.	.	.	.	.	.	.	.	.	.	.	.
.	4c 4e- 4a-	4E-	.	4c 4a-	.	.	.	.	.	.	.	12r	.
.	.	.	.	.	.	.	.	.	.	.	.	(12FL	.
8FF	.	.	.	.	.	.	.	.	.	.	.	.	.
.	.	.	.	.	.	.	.	.	.	.	.	12A-J)	.
=47	=47	=47	=47	=47	=47	=47	=47	=47	=47	=47	=47	=47	=47
2AA-	4B- 4d- 4g-X	2AA-	.	2B- 2g-X	.	2r	.	2r	.	2r	.	(4.G	.
.	4B- 4d- 4g-	.	.	.	.	.	.	.	.	.	.	.	.
.	.	.	.	.	.	.	.	.	.	.	.	16A-LL)	.
.	.	.	.	.	.	.	.	.	.	.	.	[16A-JJ	.
4AA-	4B- 4d- 4f	4AA-	.	4d- 4f	.	8d-L	.	8fL	.	8b-L	.	16A-KL]	.
.	.	.	.	.	.	.	.	.	.	.	.	8.GJ	.
.	.	.	.	.	.	8f	.	8b-	.	8dd-	.	.	.
4AA-	4A- 4c 4e-	4AA-	.	4c 4e-	.	8g-X	.	8cc	.	8ff	.	8.r	.
.	.	.	.	.	.	8A-J	.	8cJ	.	8e-J	.	.	.
.	.	.	.	.	.	.	.	.	.	.	.	16E-	.
=48	=48	=48	=48	=48	=48	=48	=48	=48	=48	=48	=48	=48	=48
[4DD-	4A- 4c 4f	2D-	.	2c 2f	.	2c	.	2f	.	2a-	.	(8FL	.
.	.	.	.	.	.	.	.	.	.	.	.	8D-J)	.
8.DD-L]	4A- 4c 4f	.	.	.	.	.	.	.	.	.	.	8FL	.
.	.	.	.	.	.	.	.	.	.	.	.	8qB-/	.
.	.	.	.	.	.	.	.	.	.	.	.	16cL	.
16DD-Jk	.	.	.	.	.	.	.	.	.	.	.	[16cJJ	.
8EE-	4G 4B- 4e-	2E-	.	2B- 2g	.	2G	.	2e-	.	2b-	.	16cKL]	.
.	.	.	.	.	.	.	.	.	.	.	.	8.B-XJ	.
4EE-	.	.	.	.	.	.	.	.	.	.	.	.	.
.	4G 4B- 4e-	.	.	.	.	.	.	.	.	.	.	8r	.
8EE-	.	.	.	.	.	.	.	.	.	.	.	16GLL	.
.	.	.	.	.	.	.	.	.	.	.	.	16GJJ	.
=49	=49	=49	=49	=49	=49	=49	=49	=49	=49	=49	=49	=49	=49
.	.	.	.	.	.	.	.	.	.	.	.	8qA-/	.
[4EEn	4G 4c 4g	2En	.	2c 2g	.	2G	.	2eX	.	2b-	.	(8B-L	.
.	.	.	.	.	.	.	.	.	.	.	.	8GJ)	.
8.EEL]	4G 4c 4g	.	.	.	.	.	.	.	.	.	.	(8B-L	.
.	.	.	.	.	.	.	.	.	.	.	.	16d-L)	.
16EEJk	.	.	.	.	.	.	.	.	.	.	.	[16cJJ	.
8FF	4A- 4c 4f	2F	.	2c 2a-	.	2c	.	2f	.	2a-	.	8c]	.
4FF	.	.	.	.	.	.	.	.	.	.	.	16r	.
.	.	.	.	.	.	.	.	.	.	.	.	16F	.
.	4A- 4c 4f	.	.	.	.	.	.	.	.	.	.	(8FL	.
8AA-	.	.	.	.	.	.	.	.	.	.	.	16GL	.
.	.	.	.	.	.	.	.	.	.	.	.	[16A-XJJ	.
=50	=50	=50	=50	=50	=50	=50	=50	=50	=50	=50	=50	=50	=50
2BB-	4A- 4d- 4f	1r	.	1r	.	1r	.	1r	.	1r	.	4.A-])	.
.	4A- 4d- 4f	.	.	.	.	.	.	.	.	.	.	.	.
.	.	.	.	.	.	.	.	.	.	.	.	8c	.
.	.	.	.	.	.	.	.	.	.	.	.	16qqB-/LL	.
.	.	.	.	.	.	.	.	.	.	.	.	16qqc/JJ	.
2EE-	4A- 4d- 4f	.	.	.	.	.	.	.	.	.	.	(4.B-	.
.	4A- 4d- 4f	.	.	.	.	.	.	.	.	.	.	.	.
.	.	.	.	.	.	.	.	.	.	.	.	8A-)	.
=51	=51	=51	=51	=51	=51	=51	=51	=51	=51	=51	=51	=51	=51
4.AA-	4.A- 4.c 4.e-	1r	.	1r	.	4r	.	4r	.	4r	.	2A-	.
.	.	.	.	.	.	8r	.	8r	.	8r	.	.	.
8AA-	16A-LL 16c	.	.	.	.	16A-LL	.	16e-LL	.	16ccLL	.	.	.
.	16A-JJ 16c	.	.	.	.	16A-JJ	.	16e-JJ	.	16ccJJ	.	.	.
8BB-	8A- 8d-	.	.	.	.	8A-	.	8f	.	8dd-	.	4r	.
4.C	4.A- 4.e- 4.a-	.	.	.	.	4.c	.	4.a-	.	4.ee-	.	.	.
.	.	.	.	.	.	.	.	.	.	.	.	8.r	.
.	.	.	.	.	.	.	.	.	.	.	.	16E-	.
=52	=52	=52	=52	=52	=52	=52	=52	=52	=52	=52	=52	=52	=52
2BB-	2A- 2d- 2f	2d-	.	2c 2f	.	2c	.	2f	.	2a-	.	(8FL	.
.	.	.	.	.	.	.	.	.	.	.	.	8D-J)	.
.	.	.	.	.	.	.	.	.	.	.	.	8FL	.
.	.	.	.	.	.	.	.	.	.	.	.	8qB-/	.
.	.	.	.	.	.	.	.	.	.	.	.	16cL	.
.	.	.	.	.	.	.	.	.	.	.	.	[16cJJ	.
2EE-	2B- 2e- 2g	2e-	.	2B- 2g	.	2G	.	2e-	.	2b-	.	16cKL]	.
.	.	.	.	.	.	.	.	.	.	.	.	8.B-XJ	.
.	.	.	.	.	.	.	.	.	.	.	.	16r	.
.	.	.	.	.	.	.	.	.	.	.	.	8E-L	.
.	.	.	.	.	.	.	.	.	.	.	.	16E-Jk	.
=53	=53	=53	=53	=53	=53	=53	=53	=53	=53	=53	=53	=53	=53
.	.	.	.	.	.	.	.	.	.	.	.	8qe-/	.
2C	2B- 2en 2g	2en	.	2c 2g	.	2G	.	2eX	.	2b-	.	(8e-L	.
.	.	.	.	.	.	.	.	.	.	.	.	16cL)	.
.	.	.	.	.	.	.	.	.	.	.	.	[16B-JJ	.
.	.	.	.	.	.	.	.	.	.	.	.	8B-L]	.
.	.	.	.	.	.	.	.	.	.	.	.	16B-L	.
.	.	.	.	.	.	.	.	.	.	.	.	([16B-JJ	.
[2FF	2c 2e-X 2a-	2f	.	2c 2a-	.	2c	.	2f	.	2a-	.	8B-]	.
.	.	.	.	.	.	.	.	.	.	.	.	[4.A-	.
=54	=54	=54	=54	=54	=54	=54	=54	=54	=54	=54	=54	=54	=54
1FF]	1cc 1ff 1aa-	1r	.	1r	.	1c	.	1f	.	1a-	.	4A-])	.
.	.	.	.	.	.	.	.	.	.	.	.	4r	.
.	.	.	.	.	.	.	.	.	.	.	.	8.r	.
.	.	.	.	.	.	.	.	.	.	.	.	16F	.
.	.	.	.	.	.	.	.	.	.	.	.	(8FL	.
.	.	.	.	.	.	.	.	.	.	.	.	16GL	.
.	.	.	.	.	.	.	.	.	.	.	.	[16A-JJ	.
=55	=55	=55	=55	=55	=55	=55	=55	=55	=55	=55	=55	=55	=55
2BB-	2A- 2d- 2f	1r	.	1r	.	1r	.	1r	.	1r	.	4A-])	.
.	.	.	.	.	.	.	.	.	.	.	.	8r	.
.	.	.	.	.	.	.	.	.	.	.	.	(16cLL	.
.	.	.	.	.	.	.	.	.	.	.	.	[16B-JJ	.
2EE-	2G 2B- 2e-	.	.	.	.	.	.	.	.	.	.	4.B-]	.
.	.	.	.	.	.	.	.	.	.	.	.	16A-LL)	.
.	.	.	.	.	.	.	.	.	.	.	.	[16A-JJ	.
=56||	=56||	=56||	=56||	=56||	=56||	=56||	=56||	=56||	=56||	=56||	=56||	=56||	=56||
4.AA-	8e-L 8a- 8cc	4.A-	mf	4.e- 4.g	mf	8e-L	mf	8ccL	mf	8ccL	mf	1A-]	>]
.	8dd-	.	.	.	.	8f	.	8dd-	.	8dd-	.	.	.
.	8cc	.	.	.	.	8e-	.	8cc	.	8cc	.	.	.
[8AA-	[8gJ [8cc [8ee-	[8A-	.	[8e- [8a-	.	[8gJ	.	[8ee-J	.	[8ee-J	.	.	.
2AA-]	2g] 2cc] 2ee-]	2A-]	.	2e-] 2a-]	.	2g]	.	2ee-]	.	2ee-]	.	.	.
=57	=57	=57	=57	=57	=57	=57	=57	=57	=57	=57	=57	=57	=57
2AA-	8dd-L 8ee- 8aa-	2.A-	.	2.d- 2.f	.	2.e-	.	2.a-	.	1r	.	2r	.
.	16a-L	.	.	.	.	.	.	.	.	.	.	.	.
.	[16ee-JJ	.	.	.	.	.	.	.	.	.	.	.	.
.	16ee-LL]	.	.	.	.	.	.	.	.	.	.	.	.
.	16aa-J	.	.	.	.	.	.	.	.	.	.	.	.
.	8ee-J	.	.	.	.	.	.	.	.	.	.	.	.
4AA-	2dd- 2ee- 2aa-	.	.	.	.	.	.	.	.	.	.	4r	.
8AA-L	.	4r	.	4r	.	4r	.	4r	.	.	.	4E-	mf < [[
8A-J	.	.	.	.	.	.	.	.	.	.	.	.	.
=58	=58	=58	=58	=58	=58	=58	=58	=58	=58	=58	=58	=58	=58
4.F	8e-L 8a- 8cc	4.g	mp	4.e- 4.a-	mp	8e-L	mp	8ccL	mp	8ccL	mp	[1e-	.
.	8dd-	.	.	.	.	8f	.	8dd-	.	8dd-	.	.	.
.	8cc	.	.	.	.	8e-	.	8cc	.	8cc	.	.	.
[8F	[8a-J [8cc [8ee-	[8f	.	[8e- [8a-	.	[8gJ	.	[8ee-J	.	[8ee-J	.	.	.
2F]	2a-] 2cc] 2ee-]	2f]	.	2e-] 2a-]	.	2g]	.	2ee-]	.	2ee-]	.	.	.
=59	=59	=59	=59	=59	=59	=59	=59	=59	=59	=59	=59	=59	=59
2D-	8dd-L 8ee- 8aa-	1r	.	1r	.	1d-	.	1e-	.	1a-	.	4e-]	.
.	16a-L	.	.	.	.	.	.	.	.	.	.	.	.
.	[16ee-JJ	.	.	.	.	.	.	.	.	.	.	.	.
.	.	.	.	.	.	.	.	.	.	.	.	8qqc/L	.
.	.	.	.	.	.	.	.	.	.	.	.	8qqd-/J	.
.	16ee-LL]	.	.	.	.	.	.	.	.	.	.	4c	.
.	16aa-J	.	.	.	.	.	.	.	.	.	.	.	.
.	8ee-J	.	.	.	.	.	.	.	.	.	.	.	.
2D-	2dd- 2ee- 2aa-	.	.	.	.	.	.	.	.	.	.	4B-	.
.	.	.	.	.	.	.	.	.	.	.	.	[4c	.
=60	=60	=60	=60	=60	=60	=60	=60	=60	=60	=60	=60	=60	=60
[1AA-	8r	1r	.	1r	.	1r	.	1r	.	1r	.	1c]	>]
.	8b- 8ee- 8gg	.	.	.	.	.	.	.	.	.	.	.	.
.	4cc 4ee- 4aa-	.	.	.	.	.	.	.	.	.	.	.	.
.	8a- 8cc 8ee-	.	.	.	.	.	.	.	.	.	.	.	.
.	4a- 4dd- 4ff	.	.	.	.	.	.	.	.	.	.	.	.
.	8f 8b- 8dd-	.	.	.	.	.	.	.	.	.	.	.	.
=61	=61	=61	=61	=61	=61	=61	=61	=61	=61	=61	=61	=61	=61
2.AA-]	4a- 4cc 4ee-	2r	.	2r	.	2r	.	2r	.	2r	.	1r	.
.	4e- 4a- 4cc	.	.	.	.	.	.	.	.	.	.	.	.
.	4d- 4f 4a-	2d-	p	2A- 2f	p	2d-	p	2f	p	2a-	p	.	.
4A-	4d- 4f	.	.	.	.	.	.	.	.	.	.	.	.
=62	=62	=62	=62	=62	=62	=62	=62	=62	=62	=62	=62	=62	=62
1AA-	1A- 1c 1e-	1A-	.	1c 1e-	.	1A-	.	1c	.	1a-	.	1E-;	p
==	==	==	==	==	==	==	==	==	==	==	==	==	==
*-	*-	*-	*-	*-	*-	*-	*-	*-	*-	*-	*-	*-	*-
